Reddit.svg

<?xml version="1.0" encoding="UTF-8" standalone="no"?>
<!-- Created with Inkscape (http://www.inkscape.org/) -->

<svg
   xmlns:dc="http://purl.org/dc/elements/1.1/"
   xmlns:cc="http://creativecommons.org/ns#"
   xmlns:rdf="http://www.w3.org/1999/02/22-rdf-syntax-ns#"
   xmlns:svg="http://www.w3.org/2000/svg"
   xmlns="http://www.w3.org/2000/svg"
   xmlns:xlink="http://www.w3.org/1999/xlink"
   xmlns:sodipodi="http://sodipodi.sourceforge.net/DTD/sodipodi-0.dtd"
   xmlns:inkscape="http://www.inkscape.org/namespaces/inkscape"
   width="100"
   height="100"
   id="svg3932"
   version="1.1"
   inkscape:version="0.48.4 r9939"
   sodipodi:docname="Reddit.svg">
  <metadata
     id="metadata13">
    <rdf:RDF>
      <cc:Work
         rdf:about="">
        <dc:format>image/svg+xml</dc:format>
        <dc:type
           rdf:resource="http://purl.org/dc/dcmitype/StillImage" />
      </cc:Work>
    </rdf:RDF>
  </metadata>
  <defs
     id="defs11">
    <linearGradient
       inkscape:collect="always"
       xlink:href="#linearGradient5322"
       id="linearGradient3799"
       x1="-72.770866"
       y1="98.260445"
       x2="-108.53157"
       y2="74.678169"
       gradientUnits="userSpaceOnUse"
       gradientTransform="translate(157.25636,-12.92373)" />
    <linearGradient
       id="linearGradient5322">
      <stop
         style="stop-color:#000000;stop-opacity:0.37391305;"
         offset="0"
         id="stop5324" />
      <stop
         style="stop-color:#000000;stop-opacity:0;"
         offset="1"
         id="stop5326" />
    </linearGradient>
    <linearGradient
       y2="74.678169"
       x2="-108.53157"
       y1="98.260445"
       x1="-72.770866"
       gradientTransform="translate(157.25636,-12.92373)"
       gradientUnits="userSpaceOnUse"
       id="linearGradient3833"
       xlink:href="#linearGradient5322"
       inkscape:collect="always" />
    <clipPath
       id="clipPath20">
      <path
         id="path22"
         d="M 0,792 612,792 612,0 0,0 0,792 z" />
    </clipPath>
  </defs>
  <sodipodi:namedview
     pagecolor="#ffffff"
     bordercolor="#666666"
     borderopacity="1"
     objecttolerance="10"
     gridtolerance="10"
     guidetolerance="10"
     inkscape:pageopacity="0"
     inkscape:pageshadow="2"
     inkscape:window-width="1920"
     inkscape:window-height="1145"
     id="namedview9"
     showgrid="false"
     inkscape:zoom="3.776"
     inkscape:cx="61.376197"
     inkscape:cy="43.658187"
     inkscape:window-x="-2"
     inkscape:window-y="-3"
     inkscape:window-maximized="1"
     inkscape:current-layer="svg3932" />
  <path
     inkscape:connector-curvature="0"
     id="path7-7-8"
     d="M 12.1375,0 C 5.4350792,0 -2.084021e-5,5.43508 0,12.1375 L 0,87.86249 C 0,94.5649 5.4350792,100.00002 12.1375,100 l 75.725,0 C 94.56494,100 99.99998,94.5649 100,87.86249 L 100,12.1375 C 100,5.43508 94.56516,0 87.8625,0 z"
     style="fill:#ffffff;fill-opacity:1;display:inline"
     sodipodi:nodetypes="sssccssss" />
  <path
     style="fill:#000000;fill-opacity:0.78431373;display:inline"
     d="M 12.1375,0 C 5.435084,0 -2.0000185e-5,5.43508 0,12.1375 l 0,75.725 C 0,94.56491 5.435084,100.00002 12.1375,100 l 75.725,0 C 94.56494,100 99.99998,94.56491 100,87.8625 l 0,-75.725 C 100,5.43508 94.56516,0 87.8625,0 L 12.1375,0 z M 18.19375,8 81.8,8 C 87.430236,8 92,12.56372 92,18.19375 L 92,81.8 C 91.999984,87.43002 87.43005,92 81.8,92 L 18.19375,92 C 12.56372,92.00002 8,87.43002 8,81.8 L 8,18.19375 C 7.999984,12.56372 12.56372,8 18.19375,8 z"
     id="path7-8-6-9"
     inkscape:connector-curvature="0" />
  <g
     transform="matrix(1.25,0,0,-1.25,-111.04995,176.20267)"
     id="g84">
    <path
       inkscape:connector-curvature="0"
       d="m 0,0 2.99,0 c 2.656,1.382 4.624,6.34 4.624,12.261 0,6.99 -2.74,12.656 -6.119,12.656 -3.38,0 -6.119,-5.666 -6.119,-12.656 C -4.624,6.34 -2.656,1.382 0,0"
       id="path86"
       style="fill:#ffffff;fill-opacity:1;fill-rule:nonzero;stroke:none" />
  </g>
  <g
     id="g3399"
     transform="matrix(2.166265,0,0,2.166265,286.35606,-258.07603)">
    <g
       id="g48"
       transform="matrix(1.25,0,0,-1.25,-119.5442,141.88692)">
      <path
         style="fill:#ffffff;fill-opacity:1;fill-rule:nonzero;stroke:none"
         id="path50"
         d="m 0,0 c 0,-1.493 -1.21,-2.702 -2.703,-2.702 -1.492,0 -2.701,1.209 -2.701,2.702 0,1.493 1.209,2.703 2.701,2.703 C -1.21,2.703 0,1.493 0,0"
         inkscape:connector-curvature="0" />
    </g>
    <g
       id="g52"
       transform="matrix(1.25,0,0,-1.25,-119.5442,141.88692)">
      <path
         style="fill:none;stroke:#000000;stroke-width:1.10000002;stroke-linecap:butt;stroke-linejoin:miter;stroke-miterlimit:4;stroke-opacity:1;stroke-dasharray:none"
         id="path54"
         d="m 0,0 c 0,-1.493 -1.21,-2.702 -2.703,-2.702 -1.492,0 -2.701,1.209 -2.701,2.702 0,1.493 1.209,2.703 2.701,2.703 C -1.21,2.703 0,1.493 0,0 z"
         inkscape:connector-curvature="0" />
    </g>
    <g
       id="g56"
       transform="matrix(1.25,0,0,-1.25,-91.916075,141.88692)">
      <path
         style="fill:#ffffff;fill-opacity:1;fill-rule:nonzero;stroke:none"
         id="path58"
         d="m 0,0 c 0,-1.493 -1.21,-2.702 -2.703,-2.702 -1.492,0 -2.701,1.209 -2.701,2.702 0,1.493 1.209,2.703 2.701,2.703 C -1.21,2.703 0,1.493 0,0"
         inkscape:connector-curvature="0" />
    </g>
    <g
       id="g60"
       transform="matrix(1.25,0,0,-1.25,-91.916075,141.88692)">
      <path
         style="fill:none;stroke:#000000;stroke-width:1.10000002;stroke-linecap:butt;stroke-linejoin:miter;stroke-miterlimit:4;stroke-opacity:1;stroke-dasharray:none"
         id="path62"
         d="m 0,0 c 0,-1.493 -1.21,-2.702 -2.703,-2.702 -1.492,0 -2.701,1.209 -2.701,2.702 0,1.493 1.209,2.703 2.701,2.703 C -1.21,2.703 0,1.493 0,0 z"
         inkscape:connector-curvature="0" />
    </g>
    <g
       id="g64"
       transform="matrix(1.25,0,0,-1.25,-99.74445,130.03205)">
      <path
         style="fill:none;stroke:#000000;stroke-width:1.10000002;stroke-linecap:round;stroke-linejoin:round;stroke-miterlimit:4;stroke-opacity:1;stroke-dasharray:none"
         id="path66"
         d="M 0,0 -5.404,1.272 -7.39,-5.006"
         inkscape:connector-curvature="0" />
    </g>
    <g
       id="g76"
       transform="matrix(1.25,0,0,-1.25,-94.325075,130.5783)">
      <path
         style="fill:#ffffff;fill-opacity:1;fill-rule:nonzero;stroke:none"
         id="path78"
         d="m 0,0 c 0,-1.176 -0.954,-2.13 -2.129,-2.13 -1.178,0 -2.131,0.954 -2.131,2.13 0,1.177 0.953,2.13 2.131,2.13 C -0.954,2.13 0,1.177 0,0"
         inkscape:connector-curvature="0" />
    </g>
    <g
       id="g80"
       transform="matrix(1.25,0,0,-1.25,-94.325075,130.5783)">
      <path
         style="fill:none;stroke:#000000;stroke-width:1.10000002;stroke-linecap:butt;stroke-linejoin:miter;stroke-miterlimit:4;stroke-opacity:1;stroke-dasharray:none"
         id="path82"
         d="m 0,0 c 0,-1.176 -0.954,-2.13 -2.129,-2.13 -1.178,0 -2.131,0.954 -2.131,2.13 0,1.177 0.953,2.13 2.131,2.13 C -0.954,2.13 0,1.177 0,0 z"
         inkscape:connector-curvature="0" />
    </g>
    <g
       id="g92"
       transform="matrix(1.25,0,0,-1.25,-93.8832,146.5323)">
      <path
         style="fill:#ffffff;fill-opacity:1;fill-rule:nonzero;stroke:none"
         id="path94"
         d="m 0,0 c 0,-4.411 -5.479,-7.986 -12.239,-7.986 -6.759,0 -12.238,3.575 -12.238,7.986 0,4.411 5.479,7.987 12.238,7.987 C -5.479,7.987 0,4.411 0,0"
         inkscape:connector-curvature="0" />
    </g>
    <g
       id="g96"
       transform="matrix(1.25,0,0,-1.25,-93.8832,146.5323)">
      <path
         style="fill:none;stroke:#000000;stroke-width:1.10000002;stroke-linecap:butt;stroke-linejoin:miter;stroke-miterlimit:4;stroke-opacity:1;stroke-dasharray:none"
         id="path98"
         d="m 0,0 c 0,-4.411 -5.479,-7.986 -12.239,-7.986 -6.759,0 -12.238,3.575 -12.238,7.986 0,4.411 5.479,7.987 12.238,7.987 C -5.479,7.987 0,4.411 0,0 z"
         inkscape:connector-curvature="0" />
    </g>
    <g
       id="g156"
       transform="matrix(1.25,0,0,-1.25,-112.7047,144.58342)">
      <path
         style="fill:#ff4500;fill-opacity:1;fill-rule:nonzero;stroke:none"
         id="path158"
         d="m 0,0 c 0,-0.79 -0.641,-1.43 -1.43,-1.43 -0.791,0 -1.431,0.64 -1.431,1.43 0,0.791 0.64,1.431 1.431,1.431 C -0.641,1.431 0,0.791 0,0"
         inkscape:connector-curvature="0" />
    </g>
    <g
       id="g160"
       transform="matrix(1.25,0,0,-1.25,-112.7047,144.58342)">
      <path
         style="fill:none;stroke:#ff4500;stroke-width:1.10000002;stroke-linecap:butt;stroke-linejoin:miter;stroke-miterlimit:4;stroke-opacity:1;stroke-dasharray:none"
         id="path162"
         d="m 0,0 c 0,-0.79 -0.641,-1.43 -1.43,-1.43 -0.791,0 -1.431,0.64 -1.431,1.43 0,0.791 0.64,1.431 1.431,1.431 C -0.641,1.431 0,0.791 0,0 z"
         inkscape:connector-curvature="0" />
    </g>
    <g
       id="g164"
       transform="matrix(1.25,0,0,-1.25,-101.92645,144.58342)">
      <path
         style="fill:#ff4500;fill-opacity:1;fill-rule:nonzero;stroke:none"
         id="path166"
         d="m 0,0 c 0,-0.79 -0.64,-1.43 -1.43,-1.43 -0.789,0 -1.43,0.64 -1.43,1.43 0,0.791 0.641,1.431 1.43,1.431 C -0.64,1.431 0,0.791 0,0"
         inkscape:connector-curvature="0" />
    </g>
    <g
       id="g168"
       transform="matrix(1.25,0,0,-1.25,-101.92645,144.58342)">
      <path
         style="fill:none;stroke:#ff4500;stroke-width:1.10000002;stroke-linecap:butt;stroke-linejoin:miter;stroke-miterlimit:4;stroke-opacity:1;stroke-dasharray:none"
         id="path170"
         d="m 0,0 c 0,-0.79 -0.64,-1.43 -1.43,-1.43 -0.789,0 -1.43,0.64 -1.43,1.43 0,0.791 0.641,1.431 1.43,1.431 C -0.64,1.431 0,0.791 0,0 z"
         inkscape:connector-curvature="0" />
    </g>
    <g
       id="g172"
       transform="matrix(1.25,0,0,-1.25,-114.3922,151.12755)">
      <path
         style="fill:none;stroke:#000000;stroke-width:1.10000002;stroke-linecap:round;stroke-linejoin:miter;stroke-miterlimit:4;stroke-opacity:1;stroke-dasharray:none"
         id="path174"
         d="M 0,0 C 1.066,-1.066 2.786,-1.271 4.212,-1.271"
         inkscape:connector-curvature="0" />
    </g>
    <g
       id="g176"
       transform="matrix(1.25,0,0,-1.25,-103.82345,151.12755)">
      <path
         style="fill:none;stroke:#000000;stroke-width:1.10000002;stroke-linecap:round;stroke-linejoin:miter;stroke-miterlimit:4;stroke-opacity:1;stroke-dasharray:none"
         id="path178"
         d="M 0,0 C -1.067,-1.066 -2.785,-1.271 -4.212,-1.271"
         inkscape:connector-curvature="0" />
    </g>
  </g>
  <path
     style="fill:url(#linearGradient3833);fill-opacity:1;display:inline"
     d="M 12.1375,0 C 5.43509,0 -1.9999945e-5,5.43508 0,12.1375 l 0,75.725 C 0,94.5649 5.43509,100.00002 12.1375,100 l 75.725004,0 C 94.564944,100 99.999984,94.5649 100,87.8625 l 0,-75.725 C 100,5.43508 94.565164,0 87.862504,0 z"
     id="path7-8-6-9-9"
     inkscape:connector-curvature="0"
     sodipodi:nodetypes="sssssssss" />
</svg>

<svg xmlns="http://www.w3.org/2000/svg" xmlns:xlink="http://www.w3.org/1999/xlink" viewBox="0 0 100 100"><defs><clipPath><path d="m0 792h612v-792h-612v792"/></clipPath><linearGradient y2="61.754" x2="48.725" y1="85.34" x1="84.49" gradientUnits="userSpaceOnUse" id="2"><stop stop-opacity=".374"/><stop offset="1" stop-opacity="0"/></linearGradient></defs><path d="m12.138 0c-6.702 0-12.138 5.435-12.138 12.138v75.72c0 6.702 5.435 12.138 12.138 12.138h75.72c6.702 0 12.137-5.435 12.138-12.138v-75.72c0-6.702-5.435-12.138-12.138-12.138z" fill="#fff"/><path d="m12.138 0c-6.702 0-12.138 5.435-12.138 12.138v75.72c0 6.702 5.435 12.138 12.138 12.138h75.72c6.702 0 12.137-5.435 12.138-12.138v-75.72c0-6.702-5.435-12.138-12.138-12.138h-75.72m6.06 8h63.61c5.63 0 10.2 4.564 10.2 10.194v63.61c0 5.63-4.57 10.2-10.2 10.2h-63.61c-5.63 0-10.194-4.57-10.194-10.2v-63.61c0-5.63 4.564-10.194 10.194-10.194" fill-opacity=".784"/><path d="m0 0c0-1.493-1.21-2.702-2.703-2.702-1.492 0-2.701 1.209-2.701 2.702 0 1.493 1.209 2.703 2.701 2.703 1.493 0 2.703-1.21 2.703-2.703" fill="#fff" transform="matrix(2.70783 0 0-2.70783 27.392 49.29)" id="0"/><path d="m0 0c0-1.493-1.21-2.702-2.703-2.702-1.492 0-2.701 1.209-2.701 2.702 0 1.493 1.209 2.703 2.701 2.703 1.493 0 2.703-1.21 2.703-2.703z" fill="none" stroke="#000" stroke-width="1.1" transform="matrix(2.70783 0 0-2.70783 27.392 49.29)" id="1"/><g transform="translate(59.848)"><use xlink:href="#0"/><use xlink:href="#1"/></g><path d="m0 0l-5.404 1.272-1.986-6.278" fill="none" stroke="#000" stroke-linejoin="round" stroke-linecap="round" stroke-width="1.1" transform="matrix(2.70783 0 0-2.70783 70.28 23.608)"/><g transform="matrix(2.70783 0 0-2.70783 82.02 24.791)"><path d="m0 0c0-1.176-.954-2.13-2.129-2.13-1.178 0-2.131.954-2.131 2.13 0 1.177.953 2.13 2.131 2.13 1.175 0 2.129-.953 2.129-2.13" fill="#fff"/><path d="m0 0c0-1.176-.954-2.13-2.129-2.13-1.178 0-2.131.954-2.131 2.13 0 1.177.953 2.13 2.131 2.13 1.175 0 2.129-.953 2.129-2.13z" fill="none" stroke="#000" stroke-width="1.1"/></g><g transform="matrix(2.70783 0 0-2.70783 82.98 59.35)"><path d="m0 0c0-4.411-5.479-7.986-12.239-7.986-6.759 0-12.238 3.575-12.238 7.986 0 4.411 5.479 7.987 12.238 7.987 6.76 0 12.239-3.576 12.239-7.987" fill="#fff"/><path d="m0 0c0-4.411-5.479-7.986-12.239-7.986-6.759 0-12.238 3.575-12.238 7.986 0 4.411 5.479 7.987 12.238 7.987 6.76 0 12.239-3.576 12.239-7.987z" fill="none" stroke="#000" stroke-width="1.1"/></g><g transform="matrix(2.70783 0 0-2.70783 42.21 55.13)"><path d="m0 0c0-.79-.641-1.43-1.43-1.43-.791 0-1.431.64-1.431 1.43 0 .791.64 1.431 1.431 1.431.789 0 1.43-.64 1.43-1.431" fill="#ff4500"/><path d="m0 0c0-.79-.641-1.43-1.43-1.43-.791 0-1.431.64-1.431 1.43 0 .791.64 1.431 1.431 1.431.789 0 1.43-.64 1.43-1.431z" fill="none" stroke="#ff4500" stroke-width="1.1"/></g><g transform="matrix(2.70783 0 0-2.70783 65.56 55.13)"><path d="m0 0c0-.79-.64-1.43-1.43-1.43-.789 0-1.43.64-1.43 1.43 0 .791.641 1.431 1.43 1.431.79 0 1.43-.64 1.43-1.431" fill="#ff4500"/><path d="m0 0c0-.79-.64-1.43-1.43-1.43-.789 0-1.43.64-1.43 1.43 0 .791.641 1.431 1.43 1.431.79 0 1.43-.64 1.43-1.431z" fill="none" stroke="#ff4500" stroke-width="1.1"/></g><g fill="none" stroke="#000" stroke-linecap="round" stroke-width="1.1"><path d="m0 0c1.066-1.066 2.786-1.271 4.212-1.271" transform="matrix(2.70783 0 0-2.70783 38.552 69.31)"/><path d="m0 0c-1.067-1.066-2.785-1.271-4.212-1.271" transform="matrix(2.70783 0 0-2.70783 61.45 69.31)"/></g><path d="m12.138 0c-6.702 0-12.138 5.435-12.138 12.138v75.72c0 6.702 5.435 12.138 12.138 12.138h75.73c6.702 0 12.137-5.435 12.137-12.138v-75.72c0-6.702-5.435-12.138-12.137-12.138z" fill="url(#2)"/></svg>
